public/images/d1.svg

<svg width="100" height="100" viewBox="0 0 100 100" fill="none" xmlns="http://www.w3.org/2000/svg">
<path d="M49.8587 98.9979C23.5351 98.9979 1.2078 76.7737 1.00154 50.2697C0.898412 37.3528 5.97749 24.9516 15.1044 15.7989C24.2828 6.38847 36.8387 1.07735 49.9876 1C62.8787 1 75.2541 6.13065 84.3552 15.2833C93.611 24.3071 98.8705 36.6309 98.9994 49.5478C99.1283 76.6448 77.3424 98.7401 50.2454 98.9979H49.8587ZM50.0134 3.55243C37.5606 3.62978 25.6493 8.68308 16.9607 17.6037C8.29788 26.2407 3.47663 37.9974 3.55397 50.2439C3.73445 75.3557 24.9016 96.4197 49.8587 96.4197H50.1939C75.8729 96.1876 96.5501 75.2525 96.447 49.5735C96.3181 37.327 91.3421 25.6477 82.5762 17.1138C73.965 8.42525 62.2341 3.55243 50.0134 3.55243Z" fill="#F1592A"/>
<path d="M11.9847 64.3467V35.7285H18.9459V38.3067H15.259V61.8458H18.9459V64.424L11.9847 64.3467Z" fill="#F1592A"/>
<path d="M35.6271 49.7281C35.6271 54.936 32.4559 57.9268 28.1503 57.9268C23.8446 57.9268 20.9828 54.5751 20.9828 50.0117C20.9828 45.2162 23.9735 41.8645 28.3823 41.8645C32.791 41.8645 35.6271 45.3709 35.6271 49.7281ZM23.9993 49.9601C23.9993 53.1313 25.5978 55.6322 28.3307 55.6322C31.0636 55.6322 32.6363 53.0539 32.6363 49.8312C32.6363 46.9178 31.1668 44.1591 28.3307 44.1591C25.4947 44.1591 23.9735 46.8405 23.9735 50.0374L23.9993 49.9601Z" fill="#F1592A"/>
<path d="M38.0504 42.3803C39.4168 42.1483 40.8091 42.0194 42.1755 42.0452C43.7225 41.8905 45.2952 42.2514 46.6358 43.0249C47.6671 43.6179 48.2859 44.7523 48.2601 45.9383C48.2343 47.511 47.1773 48.8517 45.6819 49.3157C47.5124 49.6767 48.8273 51.301 48.8273 53.1573C48.8531 54.3948 48.2859 55.5808 47.332 56.3543C46.2233 57.334 44.3928 57.7981 41.5568 57.7981C40.3966 57.7981 39.2364 57.7465 38.0762 57.5918L38.0504 42.3803ZM40.8606 48.5423H42.3044C44.2639 48.5423 45.3725 47.6141 45.3725 46.2992C45.3725 44.9843 44.2639 44.1593 42.4591 44.1593C41.9177 44.1335 41.3763 44.1851 40.8349 44.2624L40.8606 48.5423ZM40.8606 55.6839C41.3505 55.7355 41.8661 55.7613 42.356 55.7355C44.1865 55.7355 45.785 55.0394 45.785 53.1573C45.785 51.2752 44.2123 50.5791 42.2529 50.5791H40.8349V55.6839H40.8606Z" fill="#F1592A"/>
<path d="M54.4221 42.1741H57.2581V52.3065C57.2581 56.6121 55.1697 58.0301 52.1274 58.0301C51.3024 58.0301 50.5032 57.8754 49.7297 57.6176L50.0649 55.323C50.6321 55.5034 51.2251 55.6066 51.8181 55.6066C53.4423 55.6066 54.3963 54.8589 54.3963 52.1775L54.4221 42.1741Z" fill="#F1592A"/>
<path d="M65.328 50.6047V52.5642H59.4239V50.6047H65.328Z" fill="#F1592A"/>
<path d="M79.1215 57.2826C77.8582 57.7982 76.4659 58.0302 75.0995 57.9787C70.1493 57.9787 67.1586 54.8848 67.1586 50.1667C66.9265 45.8611 70.2524 42.1742 74.558 41.9422C74.8674 41.9164 75.1768 41.9164 75.4604 41.9422C76.7753 41.8906 78.0902 42.1227 79.3019 42.6383L78.6832 44.9071C77.7292 44.4946 76.6722 44.2884 75.6409 44.3141C72.4697 44.3141 70.2009 46.2994 70.2009 50.0378C70.2009 53.441 72.2119 55.6583 75.6151 55.6583C76.6722 55.6841 77.7292 55.4778 78.709 55.0911L79.1215 57.2826Z" fill="#F1592A"/>
<path d="M88.0164 35.6254V64.3209H81.0552V61.7427H84.742V38.1778H81.0552V35.5996H88.0164V35.6254Z" fill="#F1592A"/>
</svg>

<svg xmlns="http://www.w3.org/2000/svg" width="100" height="100" fill="none"><path fill="#F1592A" d="M49.859 98.998c-26.324 0-48.651-22.224-48.857-48.728a48.26 48.26 0 0 1 14.102-34.471C24.283 6.389 36.84 1.077 49.988 1a48.47 48.47 0 0 1 34.367 14.283A48.5 48.5 0 0 1 99 49.548c.13 27.097-21.657 49.192-48.754 49.45zm.154-95.446a46.54 46.54 0 0 0-33.052 14.052 45.66 45.66 0 0 0-13.407 32.64c.18 25.112 21.348 46.176 46.305 46.176h.335c25.679-.232 46.356-21.168 46.253-46.846-.129-12.247-5.105-23.926-13.87-32.46A45.85 45.85 0 0 0 50.012 3.552"/><path fill="#F1592A" d="M11.985 64.347V35.729h6.96v2.578H15.26v23.539h3.687v2.578zM35.627 49.728c0 5.208-3.171 8.199-7.477 8.199-4.305 0-7.167-3.352-7.167-7.915 0-4.796 2.99-8.148 7.4-8.148 4.408 0 7.244 3.507 7.244 7.864M24 49.96c0 3.171 1.599 5.672 4.332 5.672s4.305-2.578 4.305-5.8c0-2.914-1.47-5.673-4.305-5.673s-4.357 2.682-4.357 5.878zM38.05 42.38c1.367-.232 2.76-.36 4.126-.335a7.5 7.5 0 0 1 4.46.98 3.29 3.29 0 0 1 1.624 2.913c-.026 1.573-1.083 2.914-2.578 3.378a3.92 3.92 0 0 1 3.145 3.841 4.03 4.03 0 0 1-1.495 3.197c-1.109.98-2.94 1.444-5.775 1.444-1.16 0-2.32-.052-3.48-.206zm2.81 6.162h1.444c1.96 0 3.069-.928 3.069-2.243s-1.11-2.14-2.914-2.14c-.541-.026-1.083.026-1.624.103zm0 7.142c.49.052 1.006.077 1.496.052 1.83 0 3.429-.697 3.429-2.579s-1.573-2.578-3.532-2.578h-1.418v5.105zM54.422 42.174h2.836v10.133c0 4.305-2.088 5.723-5.13 5.723a7.6 7.6 0 0 1-2.398-.412l.335-2.295c.567.18 1.16.284 1.753.284 1.624 0 2.578-.748 2.578-3.43zM65.328 50.605v1.96h-5.904v-1.96zM79.122 57.283a9.74 9.74 0 0 1-4.022.696c-4.95 0-7.941-3.094-7.941-7.812-.233-4.306 3.093-7.993 7.399-8.225.31-.026.619-.026.902 0a8.9 8.9 0 0 1 3.842.696l-.619 2.27a7.3 7.3 0 0 0-3.042-.594c-3.171 0-5.44 1.985-5.44 5.724 0 3.403 2.01 5.62 5.414 5.62a7.9 7.9 0 0 0 3.094-.567zM88.016 35.625v28.696h-6.96v-2.578h3.686V38.178h-3.687V35.6h6.961z"/></svg>
